X: 15546
T: Glentrasna
R: reel
M: 4/4
K: Gmajor
"G"G3G GDGe|dBAG "C"E4-|E8-|[M:2/4] E2 (3AGE|
[M:C]"A"G3G GDGB|degf "Bm"d4-|d8-|[M:2/4] d3 d|
[M:C]"Em"dege "D"deBG|"C" AB "Bm" c/B/A/G/ "Am"E4-|E8|[M:2/4] B3 A|
[M:C]"Em"G2DE GABe|"D"ed- d6-|d8|
|:"G"ABgf e2dB|cBAG "C"E4-|E8-|[M:2/4] E4|
[M:C]"G"ABga edde|gd "Bm"(3edB d4-|d8-|[M:2/4] d2 (3def|
[M:C]"Em"g2fg "D"edBG|"C"cd (3BAG "Am"E4-|E8-|[M:2/4] E2 BA|
[M:C]"Em"G2DE GABe|"D"d8-|d8:|

